**kern	**kern
*staff2	*staff1
*clefF4	*clefG2
*k[]	*k[]
*M3/4	*M3/4
*C:	*C:
=-	=-
(4G	12ddL
.	12b
.	12gJ
=84	=84
4Fn')	12dL
.	12b
.	12ddJ
4E'	12eL
.	12cc#
.	12eeJ
4D'	12fL
.	12dd
.	12ffJ
=85	=85
4C#'	12gL
.	12ee
.	12ggJ
4r	12f#L
.	12dd#
.	12ff#J
4r	12gL
.	12ee
.	12ggJ
=86	=86
4AA	12gL
.	12ee
.	12ggJ
4A	12fnL
.	12dd
.	12ffJ
4A	12eL
.	12cc#
.	12eeJ
=87	=87
4D	12fL
.	12dd
.	12ffJ
4r	12eL
.	12cc#
.	12eeJ
4r	12fL
.	12dd
.	12ffJ
=88	=88
*^	*
4G	4BB	12fL
.	.	12dd
.	.	12ffJ
4G	4D	12dL
.	.	12b
.	.	12ddJ
4G	4F	12dL
.	.	12b
.	.	12ddJ
=89	=89	=89
4G	4BB	12fL
.	.	12dd
.	.	12ffJ
4r	4r	12eL
.	.	12cc#
.	.	12eeJ
4G	4BB	12fL
.	.	12dd
.	.	12ffJ
=90	=90	=90
4G	4C	12eL
.	.	12g
.	.	12eeJ
4G	4BB	12dL
.	.	12g
.	.	12ddJ
4G	4AA	12cnL
.	.	12f#
.	.	12ccJ
=91	=91	=91
4G	4GG	12bL
.	.	12cc
.	.	12cc#J
4r	4r	12ddL
.	.	12cc
.	.	12bJ
4r	4r	12aL
.	.	12g
.	.	12fJ
*v	*v	*
=92	=92
*-	*-
